X:20
T:Estampie Reale
C:Anonyme (XIIe siècle)
S:Cahier n°2 de l'anthologie de la musique provençale (Fédération Folklorique Méditerranéenne)
Z:Transcrit et/ou corrigé par B@D - 2005-04-24
Z:Pour toute observation mailto:-@- R:Estampie M:3/4
L:1/4
Q:3/4=72
K:C
[P:1] ((A2e) | e2)d | (c/B/c)d | B2z || [P:R] ((G2A) | c2)d | ((e/d/e/c/)d) | e2e | ((e/d/e/c/)d) |
e3 | ezz | G2A | c2d | ((e/d/e/c/)d) | e2e | (e/d/e/d/) (c/B/) | c2c | (dc/B/)c | c3 ||
[P:2] ga(g/f/) | ((e/d/)e)f | (g/f/e/d/)cB | c3 || [P:3] [K:G] (ab)a | (g/f/)gf | (def) | g2g | (d3 | c2)z ||
[P:4] (c'(b/a/)(g/f/)) | g2a | (g=fe | d2)z || [P:5] (ABA | G2)c | (d/e/=f/g/ f| e3) | (ab/a/g/^f/ | e2)z |]






